X:1
T:Mariju mēs sveicināsim
T:harm. Andris Solims
T:Mariju mēs sveicināsim
C:harm. Andris Solims
Z:Andris Solims
%%score [ ( 1 2 ) ( 3 4 ) ]
L:1/8
Q:1/4=80
M:6/8
K:C
V:1 treble nm="P1"
V:2 treble 
V:3 bass nm="P2"
V:4 bass 
V:1
!mf!"^Andante" G2 G (GA)_B | A2 A G2 G | A2 F G2 G | F2 G E2 E |!f! B2 B (BA)B | c2 G (GA)_B | %6
w: 1. ri- ju * mēs|svei- ci- nā- sim,|ar eņ- ģe- ļiem|go- di- nā- sim!|1. ņa Kungs, ir no|grē- ka brī- * va|
w: 2. ri- ē- * lam|prie- ka vēs- ti|Ma- ri- jai Dievs|li- ka vēs- tīt.|2. ga kal- * po-|ne es es- * mu,|
w: Svei- ci- not * E-|li- za- be- ti,|pie- pil- dī- ja|to Gars Svē- tais:|3. nis prie- * kā|sa- kus- tē- * jās,|
w: 4. lē- mes * vārds|vi- sur sla- vēts|pie- dzi- ma tur|Kungs vis- va- rens.|4. tie- da si tās|mā- jas svē- * tas,|
w: 5. nī- cā * ar|Bēr- nu gā- ja|die- nā če- tr-|des- mi- ta- jā,|5. lo- žus * tur|u- pu- rē- * ja,|
 A2 A G2 G | F2 G E2 !fermata!E |] %8
w: Die- va Mā- te|bez- vai- nī- gā.|
w: Ie- mie- so- to|Die- vu ne- su."|
w: sveik- dams Jē- zu|mā- tes mie- sās.|
w: ku- rās ap- me-|tās Bērns Jē- zus.|
w: li- ku- mu tā|iz- pil- dī- ja.|
V:2
 E2 E E2 E | F2 F E2 F | E2 (D/C/) B,2 C | C2 D C2 C | G2 A (GF)F | (GF)E E2 C | (CF)D E2 E | %7
 (DC)B, C2 C |] %8
V:3
!mf! C2 C C2 C | C2 B, C2 D | (^CA,)A, G,2 G, | (A,_A,)G, G,2 G, |!f! D2 D (DC)D | C2 C (_B,A,)G, | %6
 (F,A,)B, (C_B,)A, | (A,_A,)G, G,2 G, |] %8
V:4
 (C,E,)G, (_B,A,)G, | F,2 D, C,2 _B,, | (A,,^C,)D, (G,F,)E, | (D,C,)B,, C,2 C, | G,2 F, (E,D,)G, | %5
 (E,D,)C, C,2 E, | F,2 F, E,2 ^C, | D,2 [G,,D,] C,2 !fermata!C, |] %8

